assets/images/subjects/Architecture.svg

<svg xmlns="http://www.w3.org/2000/svg" viewBox="0 0 186.7 186.7" xmlns:v="https://vecta.io/nano"><path fill="#eef4fb" d="M93.4 13.8c-43.9 0-79.5 35.6-79.5 79.5s35.6 79.5 79.5 79.5 79.5-35.6 79.5-79.5-35.6-79.5-79.5-79.5zM76.1 143.3H54v-41.5h22.1v41.5zm0-44.2H54a3.12 3.12 0 0 1-3.1-3.1 3.12 3.12 0 0 1 3.1-3.1h22.1a3.12 3.12 0 0 1 3.1 3.1 3.12 3.12 0 0 1-3.1 3.1zm0-9H54v-26h27.2l3.9 10.8c-5.4 2.9-9 8.6-9 15.2zm17.3-17.3c-1.9 0-3.8.3-5.5.9L84.4 64h18l-3.5 9.7c-1.7-.6-3.6-.9-5.5-.9zm8.2 2.1l3.9-10.8h27.2v26h-22.1c0-6.6-3.6-12.3-9-15.2zm31.1 68.4h-22.1v-41.5h22.1v41.5zm0-44.2h-22.1a3.12 3.12 0 0 1-3.1-3.1 3.12 3.12 0 0 1 3.1-3.1h22.1a3.12 3.12 0 0 1 3.1 3.1 3.12 3.12 0 0 1-3.1 3.1zm3.9-38H50.1c0-2.6-1.7-4.6-3.8-4.6v-8.1h94v8.1c-2-.1-3.7 2-3.7 4.6z"/></svg>

<?xml version="1.0" encoding="utf-8"?>
<!-- Generator: Adobe Illustrator 18.1.1, SVG Export Plug-In . SVG Version: 6.00 Build 0)  -->
<svg version="1.1" id="Layer_4_copy" xmlns="http://www.w3.org/2000/svg" xmlns:xlink="http://www.w3.org/1999/xlink" x="0px"
	 y="0px" viewBox="0 0 186.7 186.7" enable-background="new 0 0 186.7 186.7" xml:space="preserve">
<g>
	<rect x="0" y="0" fill="none" width="186.7" height="186.7"/>
	<path fill="#EEF4FB" d="M93.4,13.8c-43.9,0-79.5,35.6-79.5,79.5c0,43.9,35.6,79.5,79.5,79.5c43.9,0,79.5-35.6,79.5-79.5
		C172.9,49.4,137.3,13.8,93.4,13.8z M76.1,143.3H54v-41.5h22.1V143.3z M76.1,99.1H54c-1.7,0-3.1-1.4-3.1-3.1c0-1.7,1.4-3.1,3.1-3.1
		h22.1c1.7,0,3.1,1.4,3.1,3.1C79.2,97.7,77.8,99.1,76.1,99.1z M76.1,90.1H54v-26h27.2l3.9,10.8C79.7,77.8,76.1,83.5,76.1,90.1z
		 M93.4,72.8c-1.9,0-3.8,0.3-5.5,0.9l-3.5-9.7h18l-3.5,9.7C97.2,73.1,95.3,72.8,93.4,72.8z M101.6,74.9l3.9-10.8h27.2v26h-22.1
		C110.6,83.5,107,77.8,101.6,74.9z M132.7,143.3h-22.1v-41.5h22.1V143.3z M132.7,99.1h-22.1c-1.7,0-3.1-1.4-3.1-3.1
		c0-1.7,1.4-3.1,3.1-3.1h22.1c1.7,0,3.1,1.4,3.1,3.1C135.8,97.7,134.4,99.1,132.7,99.1z M136.6,61.1l-86.5,0c0-2.6-1.7-4.6-3.8-4.6
		l0-8.1l94,0l0,8.1C138.3,56.4,136.6,58.5,136.6,61.1z"/>
</g>
</svg>
